X:1
T:All Together Now.mid
M:4/4
L:1/8
K:C
zzzzzG2zG2zG2zzG2zzG2zG2zG2zzG2z | zzzzzzzzzzG2z | zG2zzG2zzG2zD3zzD3zD3zzD3zzzz | zzzzzzzB4G2zD3zzzzzzG2zG2zzG2 | zG2D3zF^4zD3F^3zzD3zzD3zzzzzz | zzzB4zG2D3zzz | zzzzzzzzzzzzz | zzC2zzzzzzzzz | zzzzzzzzzzzzz | zA1D2zzzA1D2z | A1zzzzzzzzzzz | zzzzzzzzzzzzz | zzzzzzzzzzzzz | zzzzzzzzzzG2z | zG2zzG2zzG2D3 | zzD3zD3zzzD3z | zzzzzzzzzzzG2 | zzzzzD2zzzzzz | zzzzzzzzzzzzz | zzzzzzzzzzzzz | zzzzzzzzzzzzz | zzzzzzzzzzzzz | zzzzzzzzzzzzz | zzzzzzzzzzzzz | zzzC2zzzzzzzz | zzzzzzzzzzzzz | zzA1D2zzzA1D2 | zA1zzzzzzzzzz | zzzzzzzzzzzzz | zzzzzzzzzzzzz | zzzC4zzzzzzzz | zzzzzzzzzzzzz | zzzzzzzzzzzzz | zzzzzzzzzzzzz | zzzzzzzzzzzzz | zzzzzzzzzzzzz | zzzzzzzzzzzzz | zzzzzzzzG4zzz | zzzzzzG4zzG1z | zG1z
